spark-frontend/src/assets/icons/health.svg

<svg xmlns="http://www.w3.org/2000/svg" width="20" height="20" viewBox="0 0 20 20" fill="none">
    <path d="M8.99386 1C4.79663 1.46398 1.46398 4.79663 1 8.99386M11.0061 1C15.2034 1.46398 18.536 4.79663 19 8.99386M19 11.0061C18.536 15.2034 15.2034 18.536 11.0061 19M8.99387 19C4.79663 18.536 1.46398 15.2034 1 11.0061"
          stroke="#00FF98"/>
    <path d="M5.68827 8.73364C5.68827 8.41529 5.72851 8.13427 5.80899 7.8906C5.88946 7.64693 5.9924 7.45336 6.11779 7.30991C6.24318 7.16645 6.39571 7.04953 6.57538 6.95913C6.75505 6.86874 6.93097 6.80782 7.10316 6.77638C7.27534 6.74494 7.45875 6.72921 7.65339 6.72921C7.84803 6.72921 8.05764 6.77933 8.28223 6.87955C8.50681 6.97977 8.71362 7.10554 8.90264 7.25685C9.09167 7.40816 9.25356 7.54965 9.38831 7.68131C9.52306 7.81298 9.63535 7.93383 9.72519 8.04388C9.79256 8.13034 9.88427 8.17358 10.0003 8.17358C10.1163 8.17358 10.208 8.13034 10.2754 8.04388C10.3653 7.93383 10.4775 7.81298 10.6123 7.68131C10.747 7.54965 10.9089 7.40816 11.098 7.25685C11.287 7.10554 11.4938 6.97977 11.7184 6.87955C11.943 6.77933 12.1526 6.72921 12.3472 6.72921C12.5419 6.72921 12.7253 6.74494 12.8974 6.77638C13.0696 6.80782 13.2456 6.86874 13.4252 6.95913C13.6049 7.04953 13.7574 7.16645 13.8828 7.30991C14.0082 7.45336 14.1111 7.64693 14.1916 7.8906C14.2721 8.13427 14.3123 8.41529 14.3123 8.73364C14.3123 9.39392 13.9624 10.0915 13.2624 10.8265L10.0003 14.1279L6.74382 10.8324C6.04012 10.0935 5.68827 9.39392 5.68827 8.73364ZM4.9696 8.73364C4.9696 9.60222 5.39818 10.4865 6.25535 11.3865L9.75326 14.9238C9.82063 14.9945 9.90298 15.0299 10.0003 15.0299C10.0976 15.0299 10.18 14.9945 10.2473 14.9238L13.7509 11.3748C13.7883 11.3433 13.8398 11.2922 13.9053 11.2215C13.9708 11.1507 14.0746 11.022 14.2169 10.8353C14.3591 10.6486 14.4864 10.457 14.5987 10.2605C14.711 10.064 14.8111 9.82624 14.8991 9.54719C14.987 9.26815 15.031 8.99696 15.031 8.73364C15.031 7.86898 14.7933 7.19298 14.3179 6.70563C13.8426 6.21828 13.1857 5.97461 12.3472 5.97461C12.1151 5.97461 11.8784 6.01686 11.637 6.10136C11.3955 6.18586 11.171 6.29984 10.9632 6.44329C10.7555 6.58674 10.5767 6.72135 10.427 6.84712C10.2773 6.97289 10.1351 7.10652 10.0003 7.24801C9.86555 7.10652 9.72331 6.97289 9.57359 6.84712C9.42387 6.72135 9.24514 6.58674 9.0374 6.44329C8.82965 6.29984 8.60507 6.18586 8.36364 6.10136C8.12221 6.01686 7.88546 5.97461 7.65339 5.97461C6.81494 5.97461 6.15803 6.21828 5.68266 6.70563C5.20729 7.19298 4.9696 7.86898 4.9696 8.73364Z"
          fill="#00FF98"/>
</svg>

<svg xmlns="http://www.w3.org/2000/svg" width="20" height="20" fill="none"><path stroke="#00FF98" d="M8.994 1A9.06 9.06 0 0 0 1 8.994M11.006 1A9.06 9.06 0 0 1 19 8.994m0 2.012A9.06 9.06 0 0 1 11.006 19m-2.012 0A9.06 9.06 0 0 1 1 11.006"/><path fill="#00FF98" d="M5.688 8.734q0-.479.121-.843a1.7 1.7 0 0 1 .309-.581q.188-.216.457-.35.27-.136.528-.184t.55-.047.63.15.62.378q.283.227.485.424.202.198.337.363a.33.33 0 0 0 .275.13.33.33 0 0 0 .275-.13q.135-.165.337-.363.203-.197.486-.424a2.8 2.8 0 0 1 .62-.377q.338-.15.63-.15.29 0 .55.046.258.048.527.183.27.135.458.35.188.216.309.582.12.364.12.843 0 .99-1.05 2.092L10 14.128l-3.256-3.296Q5.688 9.724 5.688 8.734m-.718 0q0 1.302 1.285 2.653l3.498 3.537q.102.105.247.106.147 0 .247-.106l3.504-3.55q.056-.046.154-.152.099-.106.312-.387.213-.28.382-.575.168-.294.3-.713t.132-.813q0-1.297-.713-2.028t-1.97-.731q-.35 0-.711.126a2.8 2.8 0 0 0-.674.342 7 7 0 0 0-.536.404 5 5 0 0 0-.427.401 5 5 0 0 0-.426-.4 7 7 0 0 0-.537-.405 2.8 2.8 0 0 0-.673-.342 2.1 2.1 0 0 0-.71-.126q-1.26 0-1.971.73-.713.732-.713 2.029"/></svg>
